X:320
T: I Won't Marry Her
S: "Johnny O'Leary of Sliabh Luachra" (#81)
Z: B.Black
L: 1/8
M: 2/4
Q: 280
R: polka
K: D
Ad f2|gf/g/ fg/e/|fe f/e/c|ed dc/d/|
Ad fd/f/|ge/g/ fg/e/|fe ac|1 ed df/d/ :|2\
ed d/e/f/g/||
aA AG/A/|BA B/A/F/A/|fe ec|ed d/e/f/g/|
aA B/G/F/A/|BA A/G/A/d/|fe aA|1 ed d/e/f/g/ :|2\
ed d2||
